libs/ui/packages/crypto-icons/src/svg/MKR.svg

<svg width="24" height="24" viewBox="0 0 24 24" fill="none">
<path d="M5.6685 15.867V9.83325L10.2442 13.2773V15.867H11.4127V13.035C11.4127 12.9294 11.388 12.8252 11.3408 12.7307C11.2935 12.6362 11.225 12.554 11.1405 12.4905L5.59125 8.31375C5.49008 8.23774 5.36974 8.19139 5.24372 8.17989C5.1177 8.16838 4.99096 8.19218 4.8777 8.24862C4.76444 8.30506 4.66912 8.3919 4.60241 8.49944C4.5357 8.60698 4.50024 8.73096 4.5 8.8575V15.867H5.6685ZM18.324 15.867V9.83325L13.7482 13.2773V15.867H12.5798V13.035C12.5798 12.8205 12.6802 12.6188 12.8512 12.4905L18.4012 8.31375C18.5025 8.2377 18.6229 8.19134 18.749 8.17987C18.8751 8.1684 19.0018 8.19226 19.1151 8.24879C19.2284 8.30531 19.3237 8.39227 19.3904 8.49992C19.457 8.60756 19.4924 8.73164 19.4925 8.85825V15.8678H18.324V15.867Z" fill="#1AAB9B"/>
</svg>

<svg width="24" height="24" viewBox="0 0 24 24" fill="none"><path fill="#1aab9b" d="M5.669 15.867V9.833l4.575 3.444v2.59h1.169v-2.832a.68.68 0 0 0-.273-.544L5.591 8.314a.682.682 0 0 0-1.091.543v7.01zm12.655 0V9.833l-4.576 3.444v2.59H12.58v-2.832c0-.215.1-.416.271-.544l5.55-4.177a.682.682 0 0 1 1.092.544v7.01z"/></svg>
